X:3896
T:Unknown Trad French
L:1/8
M:4/4
O:France
Q:1/4=150
Z:Joe Wass
K:DMix
|:d>d cA  _B>B AA | d>d cA  _B2 A2 | d>d cA  _B>B AA | dd c>_B  A4 :|
|:D>E FG  A>_B c2 | d>c Ac  _B>A G2 | D>E FG A>_B c2 | d>c AF G4 :|

